X:198 
T:Spare the Rod* (reel)
S:Grier MS
F:file ID: cre.4/198spare_r
B:CRE4.140: gan ainm
L:1/8
Q:180
M:4/4
R:reel
K:G
BA|GEDG E2DE|GEDB c2 Bc|A2 AB ABAG|EAAB c2 BA|
GEDG E2DE|GEDB c2 BA|BcdB cBAB|GEDE G2||
AB|c2 cB c2 eB|c2 eB cBAB|dedB dedB|dedB cBAB|
c2 cB c2 eB|c2 eB cBAB|dedB cBAB|GEDE HG4 ||

%%%

